source/img/nkh_logo.svg

<?xml version="1.0" encoding="UTF-8"?> <svg xmlns="http://www.w3.org/2000/svg" width="106" height="44" viewBox="0 0 106 44" fill="none"> <path d="M83.1021 21.6049C84.4434 21.6049 85.7045 21.8454 86.8853 22.3266C88.0661 22.8078 89.0742 23.4575 89.9094 24.2759C90.7446 25.0943 91.4029 26.069 91.8843 27.1999C92.3657 28.3308 92.6064 29.5296 92.6064 30.7963C92.6064 32.0465 92.3616 33.2391 91.872 34.3741C91.3824 35.5092 90.7179 36.4879 89.8785 37.3104C89.0392 38.1329 88.0271 38.7868 86.8421 39.2721C85.6572 39.7574 84.394 40 83.0527 40C81.2671 40 79.646 39.5908 78.1895 38.7724C76.733 37.954 75.5954 36.8437 74.7766 35.4413C73.9579 34.039 73.5485 32.4906 73.5485 30.7963C73.5485 29.5461 73.7933 28.3555 74.2829 27.2246C74.7725 26.0936 75.437 25.1169 76.2763 24.2944C77.1157 23.4719 78.1278 22.8181 79.3128 22.3328C80.4977 21.8475 81.7608 21.6049 83.1021 21.6049ZM36.7119 21.9503V31.7833L36.7153 32.0126C36.749 33.1412 37.0359 34.0025 37.5759 34.5962C38.1519 35.2295 38.9501 35.5462 39.9705 35.5462C40.9909 35.5462 41.7891 35.2419 42.3651 34.6332C42.9411 34.0246 43.2291 33.1157 43.2291 31.9066V21.9503H48.2158V31.7586L48.2117 32.1065C48.1822 33.3688 47.9901 34.4824 47.6356 35.4475C47.2489 36.5003 46.6893 37.3557 45.9569 38.0137C45.2246 38.6717 44.3544 39.1631 43.3464 39.488C42.3383 39.8129 41.1966 39.9753 39.9211 39.9753C37.329 39.9753 35.3171 39.3029 33.8853 37.9582C32.4535 36.6134 31.7376 34.588 31.7376 31.882V21.9503H36.7119ZM8.68982 21.6542C11.5946 21.6542 14.0221 22.4356 15.9723 23.9983L15.8127 23.8741V24.223L13.516 27.4652L13.268 27.2955C11.6971 26.2489 10.1299 25.7256 8.56639 25.7256C7.99037 25.7256 7.55013 25.8346 7.24567 26.0525C6.9412 26.2705 6.78897 26.5563 6.78897 26.91C6.78897 27.3212 6.99263 27.6399 7.39996 27.8661C7.80728 28.0923 8.62399 28.3452 9.85008 28.6249C10.9363 28.8634 11.8579 29.1245 12.615 29.4083C13.372 29.6921 14.0529 30.0478 14.6578 30.4755C15.2626 30.9032 15.7131 31.4234 16.0093 32.0362C16.3056 32.6489 16.4537 33.3666 16.4537 34.1891C16.4537 35.9739 15.8036 37.3803 14.5035 38.4085C13.2033 39.4366 11.467 39.9506 9.29464 39.9506C7.69825 39.9506 6.18415 39.7018 4.75234 39.2042C3.32052 38.7066 2.06975 37.9767 1 37.0143L3.74019 33.7573L3.97177 33.9378C5.67602 35.2321 7.51203 35.8793 9.47979 35.8793C10.1299 35.8793 10.6277 35.7703 10.9733 35.5523C11.3189 35.3344 11.4917 35.0198 11.4917 34.6085C11.4917 34.2302 11.2881 33.9218 10.8807 33.6832C10.4734 33.4447 9.68551 33.1897 8.51702 32.9183C7.91631 32.7785 7.39584 32.6489 6.9556 32.5297C6.51536 32.4104 6.04837 32.2603 5.55465 32.0794C5.06092 31.8984 4.64125 31.7092 4.29564 31.5118C3.95003 31.3144 3.61265 31.0759 3.28349 30.7963C2.95434 30.5166 2.69102 30.2143 2.49353 29.8895C2.29604 29.5646 2.13763 29.1842 2.01832 28.7482C1.899 28.3123 1.83934 27.8353 1.83934 27.3171C1.83934 25.6474 2.45856 24.2862 3.69699 23.2334C4.93543 22.1806 6.5997 21.6542 8.68982 21.6542ZM31.3411 21.9503V26.2561H26.0212V39.6422H21.1209V26.2561H15.8133L15.8127 24.223L15.9723 23.9983L15.8127 23.8741L15.8133 21.9503H31.3411ZM56.4255 21.9503L56.8112 21.9548C58.2142 21.9878 59.4928 22.2022 60.6469 22.598C61.9059 23.0298 62.955 23.6344 63.7944 24.4116C64.6337 25.1889 65.2797 26.1163 65.7323 27.1937C66.1848 28.2712 66.4111 29.4556 66.4111 30.7469C66.4111 32.0218 66.1828 33.2021 65.7261 34.2878C65.2694 35.3735 64.6172 36.3132 63.7697 37.1069C62.9221 37.9006 61.8606 38.5216 60.5851 38.9698C59.3097 39.4181 57.8902 39.6422 56.3267 39.6422H49.5997V21.9503H56.4255ZM72.4484 21.9503V39.6422H67.5112V21.9503H72.4484ZM83.0527 26.0217C81.7444 26.0217 80.6705 26.4843 79.8312 27.4096C78.9918 28.3349 78.5722 29.4638 78.5722 30.7963C78.5722 32.104 79.0001 33.2267 79.8559 34.1644C80.7116 35.102 81.7937 35.5709 83.1021 35.5709C84.427 35.5709 85.509 35.1082 86.3484 34.1829C87.1877 33.2576 87.6074 32.1287 87.6074 30.7963C87.6074 29.4885 87.1795 28.3658 86.3237 27.4281C85.4679 26.4905 84.3776 26.0217 83.0527 26.0217ZM56.4995 26.2561H54.4999V35.2994H56.4995C57.9889 35.2994 59.1739 34.9026 60.0544 34.1089C60.9349 33.3152 61.3751 32.2027 61.3751 30.7716C61.3751 29.3733 60.9328 28.2712 60.0482 27.4652C59.1636 26.6591 57.9807 26.2561 56.4995 26.2561ZM104 3.14531V20.6919H54.8466V3.14531H104ZM6.92474 3L14.1949 12.3518V3H19.0581V20.6919H14.7627L7.19629 10.9947V20.6919H2.34541V3H6.92474ZM25.5645 3V10.1804L31.662 3H37.4757L30.7733 10.6122L37.6003 20.5508L37.6006 20.6919H31.8101L27.3666 14.1284L25.5645 16.1147V20.6919H20.6642V3H25.5645ZM42.5008 3V9.62521H48.7959V3H53.7085V20.6919H48.7959V13.968H42.5008V20.6919H37.6979L37.6003 20.5508L37.6006 3H42.5008ZM56.2505 5.54145L56.251 19.2882L70.0037 19.2881L56.2505 5.54145ZM72.401 12.2V19.2881H79.1841L72.401 12.2ZM102.595 12.2695L88.5518 12.2695L88.5514 19.2881L102.596 19.2882L102.595 12.2695ZM87.147 4.54901H81.1271L78.0185 7.79724V16.0392L81.1278 19.2881H87.147V4.54901ZM70.9966 4.54901H57.2442L70.9966 18.2957V4.54901ZM76.6141 9.26483L74.0747 11.9186L76.6141 14.5723V9.26483ZM79.1834 4.54901H72.401V11.6371L79.1834 4.54901ZM102.596 4.54903L88.5514 4.54901L88.5518 10.8658L102.595 10.8658L102.596 4.54903Z" fill="white"></path> </svg>

<svg xmlns="http://www.w3.org/2000/svg" width="106" height="44" fill="none"><path d="M83.1 21.6a9.93 9.93 0 016.8 2.68 9.09 9.09 0 011.96 10.1 9.12 9.12 0 01-5.02 4.9 9.9 9.9 0 01-3.79.72c-1.78 0-3.4-.4-4.86-1.23a8.94 8.94 0 01-4.64-7.97 9.13 9.13 0 015.76-8.46 9.9 9.9 0 013.8-.74zm-46.39.35v10.06a3.9 3.9 0 00.87 2.59c.57.63 1.37.95 2.4.95 1.01 0 1.8-.3 2.39-.92.57-.6.86-1.51.86-2.72v-9.96h4.99v10.16a10.37 10.37 0 01-.58 3.34A6.29 6.29 0 0145.96 38a7.12 7.12 0 01-2.61 1.48c-1.01.32-2.15.49-3.43.49-2.6 0-4.6-.68-6.03-2.02-1.44-1.35-2.15-3.37-2.15-6.08v-9.93h4.97zm-28.02-.3c2.9 0 5.33.79 7.28 2.35l-.16-.13v.35l-2.3 3.25-.24-.17a8.43 8.43 0 00-4.7-1.57c-.58 0-1.02.1-1.32.32a1 1 0 00-.46.86c0 .41.2.73.61.96.4.22 1.22.48 2.45.75 1.09.24 2 .5 2.77.79.75.28 1.43.64 2.04 1.07.6.42 1.05.94 1.35 1.56.3.6.44 1.33.44 2.15 0 1.78-.65 3.19-1.95 4.22-1.3 1.03-3.03 1.54-5.2 1.54-1.6 0-3.12-.25-4.55-.75A10.88 10.88 0 011 37.01l2.74-3.25.23.18a8.93 8.93 0 005.51 1.94c.65 0 1.15-.11 1.5-.33.34-.22.51-.53.51-.94 0-.38-.2-.69-.6-.93-.42-.24-1.2-.49-2.37-.76l-1.56-.39c-.44-.12-.91-.27-1.4-.45a6.7 6.7 0 01-2.27-1.28 3.76 3.76 0 01-1.27-2.05 5.4 5.4 0 01-.18-1.43c0-1.67.62-3.03 1.86-4.09 1.24-1.05 2.9-1.58 4.99-1.58zm22.65.3v4.3h-5.32v13.4h-4.9v-13.4h-5.3v-2.03l.15-.22-.16-.13v-1.92h15.53zm25.09 0h.38c1.4.04 2.68.25 3.84.65a7.93 7.93 0 015.09 4.6c.44 1.07.67 2.26.67 3.55 0 1.27-.23 2.45-.68 3.54a8.14 8.14 0 01-5.14 4.68c-1.28.45-2.7.67-4.26.67H49.6V21.95h6.83zm16.02 0v17.7H67.5v-17.7h4.94zm10.6 4.07c-1.3 0-2.38.46-3.22 1.39a4.86 4.86 0 00-1.26 3.39c0 1.3.43 2.43 1.29 3.36a4.2 4.2 0 003.24 1.41c1.33 0 2.4-.46 3.25-1.39a4.86 4.86 0 001.26-3.38c0-1.31-.43-2.43-1.29-3.37a4.23 4.23 0 00-3.27-1.4zm-26.55.24h-2v9.04h2c1.49 0 2.67-.4 3.55-1.2.88-.78 1.33-1.9 1.33-3.33 0-1.4-.45-2.5-1.33-3.3a5.07 5.07 0 00-3.55-1.21zM104 3.15v17.54H54.85V3.15H104zM6.92 3l7.27 9.35V3h4.87v17.7h-4.3L7.2 11v9.7H2.35V3h4.57zm18.64 0v7.18L31.66 3h5.82l-6.7 7.61 6.82 9.94v.14h-5.79l-4.44-6.56-1.8 1.98v4.58h-4.9V3h4.9zM42.5 3v6.63h6.3V3h4.9v17.7h-4.9v-6.73h-6.3v6.72h-4.8l-.1-.14V3h4.9zm13.75 2.54V19.3H70L56.25 5.54zM72.4 12.2v7.09h6.78L72.4 12.2zm30.2.07H88.55v7.02h14.05v-7.02zM87.14 4.55h-6.02L78.02 7.8v8.24l3.1 3.25h6.03V4.55zM71 4.55H57.24L71 18.3V4.55zm5.61 4.71l-2.54 2.66 2.54 2.65v-5.3zm2.57-4.71H72.4v7.09l6.78-7.1zm23.42 0H88.55v6.32h14.05V4.55z" fill="#fff"/></svg>
